X: 29
T:Off She Goes (In the North)
M:6/8
L:1/8
Q:120
R:Jig
K:D
A|"D"FzA "G"GzB|"A"ABc "D"d3|FzA "G"GzB|"D"AFD "A"E3|
"D"FzA "G"GzB|"A"ABc "D"d2e|fzd "Em"g2f|"A"edc "D"d2::
g|"D"faf dzf|"A"ege czg|"D"faf dzf|"A"edc "D"dzg|
faf dzf|"A"ege cze|"D"dzf "Em"a2f|"A"gec "D"dz:|
